public/images/f3.svg

<svg fill="none" height="86" viewBox="0 0 394 86" width="394" xmlns="http://www.w3.org/2000/svg" xmlns:xlink="http://www.w3.org/1999/xlink"><filter id="a" color-interpolation-filters="sRGB" filterUnits="userSpaceOnUse" height="86" width="86" x="308" y="0"><feFlood flood-opacity="0" result="BackgroundImageFix"/><feColorMatrix in="SourceAlpha" result="hardAlpha" type="matrix" values="0 0 0 0 0 0 0 0 0 0 0 0 0 0 0 0 0 0 127 0"/><feMorphology in="SourceAlpha" operator="dilate" radius="6" result="effect1_dropShadow_701_168"/><feOffset/><feComposite in2="hardAlpha" operator="out"/><feColorMatrix type="matrix" values="0 0 0 0 1 0 0 0 0 1 0 0 0 0 1 0 0 0 0.05 0"/><feBlend in2="BackgroundImageFix" mode="normal" result="effect1_dropShadow_701_168"/><feBlend in="SourceGraphic" in2="effect1_dropShadow_701_168" mode="normal" result="shape"/><feColorMatrix in="SourceAlpha" result="hardAlpha" type="matrix" values="0 0 0 0 0 0 0 0 0 0 0 0 0 0 0 0 0 0 127 0"/><feOffset dy="4"/><feGaussianBlur stdDeviation="15"/><feComposite in2="hardAlpha" k2="-1" k3="1" operator="arithmetic"/><feColorMatrix type="matrix" values="0 0 0 0 1 0 0 0 0 1 0 0 0 0 1 0 0 0 0.1 0"/><feBlend in2="shape" mode="normal" result="effect2_innerShadow_701_168"/></filter><filter id="b" color-interpolation-filters="sRGB" filterUnits="userSpaceOnUse" height="86" width="86" x="0" y="0"><feFlood flood-opacity="0" result="BackgroundImageFix"/><feColorMatrix in="SourceAlpha" result="hardAlpha" type="matrix" values="0 0 0 0 0 0 0 0 0 0 0 0 0 0 0 0 0 0 127 0"/><feMorphology in="SourceAlpha" operator="dilate" radius="6" result="effect1_dropShadow_701_168"/><feOffset/><feComposite in2="hardAlpha" operator="out"/><feColorMatrix type="matrix" values="0 0 0 0 1 0 0 0 0 1 0 0 0 0 1 0 0 0 0.05 0"/><feBlend in2="BackgroundImageFix" mode="normal" result="effect1_dropShadow_701_168"/><feBlend in="SourceGraphic" in2="effect1_dropShadow_701_168" mode="normal" result="shape"/><feColorMatrix in="SourceAlpha" result="hardAlpha" type="matrix" values="0 0 0 0 0 0 0 0 0 0 0 0 0 0 0 0 0 0 127 0"/><feOffset dy="4"/><feGaussianBlur stdDeviation="15"/><feComposite in2="hardAlpha" k2="-1" k3="1" operator="arithmetic"/><feColorMatrix type="matrix" values="0 0 0 0 1 0 0 0 0 1 0 0 0 0 1 0 0 0 0.1 0"/><feBlend in2="shape" mode="normal" result="effect2_innerShadow_701_168"/></filter><linearGradient id="c" gradientUnits="userSpaceOnUse" x1="43" x2="43" y1="26" y2="60"><stop offset="0" stop-color="#ea580b"/><stop offset="1" stop-color="#fb923c"/></linearGradient><linearGradient id="d"><stop offset="0" stop-color="#ff5f0d"/><stop offset=".457635" stop-color="#fed9c6"/><stop offset="1" stop-color="#ff8546"/></linearGradient><linearGradient id="e" gradientUnits="userSpaceOnUse" x1="280" x2="277.604" xlink:href="#d" y1="25.9595" y2="52.2161"/><linearGradient id="f" gradientUnits="userSpaceOnUse" x1="111" x2="113.396" xlink:href="#d" y1="60.0404" y2="33.7839"/><g filter="url(#a)"><path d="m314 43c0-20.4345 16.565-37 37-37 20.435 0 37 16.5655 37 37 0 20.4345-16.565 37-37 37-20.435 0-37-16.5655-37-37z" fill="#262626"/><path d="m351 79c-19.882 0-36-16.1177-36-36 0-19.8822 16.118-36 36-36s36 16.1178 36 36c0 19.8823-16.118 36-36 36z" stroke="#404040" stroke-width="2"/><path clip-rule="evenodd" d="m343.714 26c-1.25 0-2.449.4923-3.333 1.3686-.884.8762-1.381 2.0647-1.381 3.304 0 .6796.214 1.5496.441 2.3193.241.8325.565 1.7772.905 2.6999.677 1.8452 1.44 3.6972 1.777 4.5315.128.3148.348.5845.631.7745.284.19.618.2916.96.2916.343 0 .677-.1016.96-.2916.284-.19.504-.4597.631-.7745.338-.8326 1.101-2.6863 1.778-4.5315.331-.8901.633-1.7906.905-2.6999.226-.7697.441-1.6397.441-2.3193 0-1.2393-.497-2.4278-1.381-3.304-.884-.8763-2.083-1.3686-3.334-1.3686zm13.637 5.5986c-.884-.8762-2.083-1.3685-3.333-1.3685s-2.449.4923-3.333 1.3685c-.486.4808-.954 1.2454-1.344 1.9489-.422.7578-.866 1.6549-1.286 2.5435-.837 1.7773-1.618 3.6243-1.977 4.45-.135.3121-.172.6572-.107.9906s.229.6399.471.88.551.4028.888.467c.336.0642.684.0271.999-.1066 1.504-.6389 3.009-1.2744 4.492-1.9591.894-.4163 1.8-.8564 2.564-1.2743.71-.3874 1.481-.8513 1.966-1.3322.884-.8762 1.381-2.0647 1.381-3.3039s-.497-2.4276-1.381-3.3039zm.935 8.8439c1.25 0 2.449.4923 3.333 1.3685.884.8763 1.381 2.0648 1.381 3.304 0 1.2393-.497 2.4278-1.381 3.3041-.884.8762-2.083 1.3685-3.333 1.3685-.686 0-1.564-.2124-2.34-.4367-.918-.2699-1.826-.5691-2.724-.8971-1.86-.6694-3.731-1.4272-4.572-1.762-.318-.1261-.591-.3438-.783-.625s-.295-.613-.295-.9526.103-.6714.295-.9526.465-.4989.783-.625c.84-.3331 2.71-1.0892 4.572-1.7603.898-.328 1.806-.6272 2.724-.8971.776-.2243 1.654-.4367 2.34-.4367zm-.935 18.189c.438-.4339.786-.9491 1.023-1.5161.237-.5671.359-1.1749.359-1.7887s-.122-1.2215-.359-1.7886c-.237-.567-.585-1.0822-1.023-1.5161-.485-.4792-1.256-.9431-1.966-1.3305-.841-.4519-1.697-.8769-2.566-1.2743-1.795-.8309-3.657-1.6057-4.49-1.9591-.315-.1337-.663-.1708-.999-.1066-.337.0642-.646.2269-.888.467s-.406.5466-.471.88-.028.6785.107.9906c.357.8257 1.14 2.671 1.977 4.45.42.8886.864 1.784 1.286 2.5435.39.7035.858 1.4681 1.344 1.9489.884.8762 2.083 1.3685 3.333 1.3685s2.449-.4923 3.333-1.3685z" fill="#ffc233" fill-rule="evenodd"/></g><g filter="url(#b)"><rect fill="#262626" height="74" rx="37" width="74" x="6" y="6"/><rect height="72" rx="36" stroke="#404040" stroke-opacity=".8" stroke-width="2" width="72" x="7" y="7"/><g fill="url(#c)"><path d="m30.1002 34.9308c-.5192.3594-.5794 1.1041-.1247 1.5423l2.5084 2.4171c.3408.3283.865.3728 1.2563.1067l7.5747-5.1521c1.0172-.6918 2.3536-.6926 3.3715-.002l8.8866 6.029c.5486.3722.8772.9921.8772 1.6551v12.4092c0 .3645-.2955.6599-.6599.6599-.3664 0-.4598.5079-.1174.6383l4.9268 1.876c.3862.147.8203.0331.9888-.3442.1998-.4474.4115-1.1597.4115-2.1701v-17l-15.2969-10.4343c-1.0259-.6998-2.377-.6951-3.3981.0118z"/><path d="m26 39.8985c0-.8746 1.0435-1.3278 1.6826-.7308l3.4077 3.1831c.4049.3782.6348.9075.6348 1.4615v10.7837h10.213c.2387 0 .4754.0427.699.1261l11.5534 4.3094c.522.1947.3824.9685-.1748.9685h-25.0157c-1.6569 0-3-1.3431-3-3z"/></g></g><path d="m111.5 37h168.5l-10-10" stroke="url(#e)" stroke-linecap="round" stroke-linejoin="round" stroke-width="2"/><path d="m279.5 49h-168.5l10 10" stroke="url(#f)" stroke-linecap="round" stroke-linejoin="round" stroke-width="2"/><rect fill="#262626" height="41" rx="20.5" width="41" x="174" y="23"/><path d="m188.5 43.55c0 .75.142 1.4793.425 2.188s.725 1.3627 1.325 1.962l.25.25v-1.45c0-.2833.096-.5207.288-.712s.429-.2873.712-.288.52.0953.713.288.288.43.287.712v4c0 .2833-.096.521-.288.713s-.429.2877-.712.287h-4c-.283 0-.521-.096-.712-.288s-.287-.4293-.288-.712.095-.52.288-.712.43-.288.712-.288h1.75l-.4-.35c-.867-.7667-1.475-1.6417-1.825-2.625s-.525-1.975-.525-2.975c0-1.5667.4-2.9877 1.2-4.263s1.875-2.2543 3.225-2.937c.233-.1333.479-.1417.738-.025s.429.3083.512.575c.083.25.079.5-.012.75s-.254.4417-.488.575c-.967.5333-1.737 1.271-2.312 2.213s-.862 1.9793-.863 3.112zm12-.1c0-.75-.142-1.479-.425-2.187s-.725-1.3623-1.325-1.963l-.25-.25v1.45c0 .2833-.096.521-.288.713s-.429.2877-.712.287-.52-.0967-.712-.288-.288-.4287-.288-.712v-4c0-.2833.096-.5207.288-.712s.429-.2873.712-.288h4c.283 0 .521.096.713.288s.288.4293.287.712-.097.5203-.288.713-.429.2883-.712.287h-1.75l.4.35c.817.8167 1.413 1.7043 1.788 2.663s.563 1.9377.562 2.937c0 1.5667-.4 2.9877-1.2 4.263s-1.875 2.2543-3.225 2.937c-.233.1333-.479.1417-.737.025s-.429-.3083-.513-.575c-.083-.25-.079-.5.013-.75s.254-.4417.487-.575c.967-.5333 1.738-1.2707 2.313-2.212s.863-1.979.862-3.113z" fill="#fff"/></svg>

<svg width="394" height="86" viewBox="0 0 394 86" fill="none" xmlns="http://www.w3.org/2000/svg">
<g filter="url(#filter0_di_701_168)">
<path d="M314 43C314 22.5655 330.565 6 351 6V6C371.435 6 388 22.5655 388 43V43C388 63.4345 371.435 80 351 80V80C330.565 80 314 63.4345 314 43V43Z" fill="#262626"/>
<path d="M351 79C331.118 79 315 62.8823 315 43C315 23.1178 331.118 7 351 7C370.882 7 387 23.1178 387 43C387 62.8823 370.882 79 351 79Z" stroke="#404040" stroke-width="2"/>
<path fill-rule="evenodd" clip-rule="evenodd" d="M343.714 26C342.464 26 341.265 26.4923 340.381 27.3686C339.497 28.2448 339 29.4333 339 30.6726C339 31.3522 339.214 32.2222 339.441 32.9919C339.682 33.8244 340.006 34.7691 340.346 35.6918C341.023 37.537 341.786 39.389 342.123 40.2233C342.251 40.5381 342.471 40.8078 342.754 40.9978C343.038 41.1878 343.372 41.2894 343.714 41.2894C344.057 41.2894 344.391 41.1878 344.674 40.9978C344.958 40.8078 345.178 40.5381 345.305 40.2233C345.643 39.3907 346.406 37.537 347.083 35.6918C347.414 34.8017 347.716 33.9012 347.988 32.9919C348.214 32.2222 348.429 31.3522 348.429 30.6726C348.429 29.4333 347.932 28.2448 347.048 27.3686C346.164 26.4923 344.965 26 343.714 26ZM357.351 31.5986C356.467 30.7224 355.268 30.2301 354.018 30.2301C352.768 30.2301 351.569 30.7224 350.685 31.5986C350.199 32.0794 349.731 32.844 349.341 33.5475C348.919 34.3053 348.475 35.2024 348.055 36.091C347.218 37.8683 346.437 39.7153 346.078 40.541C345.943 40.8531 345.906 41.1982 345.971 41.5316C346.036 41.865 346.2 42.1715 346.442 42.4116C346.684 42.6517 346.993 42.8144 347.33 42.8786C347.666 42.9428 348.014 42.9057 348.329 42.772C349.833 42.1331 351.338 41.4976 352.821 40.8129C353.715 40.3966 354.621 39.9565 355.385 39.5386C356.095 39.1512 356.866 38.6873 357.351 38.2064C358.235 37.3302 358.732 36.1417 358.732 34.9025C358.732 33.6633 358.235 32.4749 357.351 31.5986ZM358.286 40.4425C359.536 40.4425 360.735 40.9348 361.619 41.811C362.503 42.6873 363 43.8758 363 45.115C363 46.3543 362.503 47.5428 361.619 48.4191C360.735 49.2953 359.536 49.7876 358.286 49.7876C357.6 49.7876 356.722 49.5752 355.946 49.3509C355.028 49.081 354.12 48.7818 353.222 48.4538C351.362 47.7844 349.491 47.0266 348.65 46.6918C348.332 46.5657 348.059 46.348 347.867 46.0668C347.675 45.7856 347.572 45.4538 347.572 45.1142C347.572 44.7746 347.675 44.4428 347.867 44.1616C348.059 43.8804 348.332 43.6627 348.65 43.5366C349.49 43.2035 351.36 42.4474 353.222 41.7763C354.12 41.4483 355.028 41.1491 355.946 40.8792C356.722 40.6549 357.6 40.4425 358.286 40.4425ZM357.351 58.6315C357.789 58.1976 358.137 57.6824 358.374 57.1154C358.611 56.5483 358.733 55.9405 358.733 55.3267C358.733 54.7129 358.611 54.1052 358.374 53.5381C358.137 52.9711 357.789 52.4559 357.351 52.022C356.866 51.5428 356.095 51.0789 355.385 50.6915C354.544 50.2396 353.688 49.8146 352.819 49.4172C351.024 48.5863 349.162 47.8115 348.329 47.4581C348.014 47.3244 347.666 47.2873 347.33 47.3515C346.993 47.4157 346.684 47.5784 346.442 47.8185C346.2 48.0586 346.036 48.3651 345.971 48.6985C345.906 49.0319 345.943 49.377 346.078 49.6891C346.435 50.5148 347.218 52.3601 348.055 54.1391C348.475 55.0277 348.919 55.9231 349.341 56.6826C349.731 57.3861 350.199 58.1507 350.685 58.6315C351.569 59.5077 352.768 60 354.018 60C355.268 60 356.467 59.5077 357.351 58.6315Z" fill="#FFC233"/>
</g>
<g filter="url(#filter1_di_701_168)">
<rect x="6" y="6" width="74" height="74" rx="37" fill="#262626"/>
<rect x="7" y="7" width="72" height="72" rx="36" stroke="#404040" stroke-opacity="0.8" stroke-width="2"/>
<path d="M30.1002 34.9308C29.581 35.2902 29.5208 36.0349 29.9755 36.4731L32.4839 38.8902C32.8247 39.2185 33.3489 39.263 33.7402 38.9969L41.3149 33.8448C42.3321 33.153 43.6685 33.1522 44.6864 33.8428L53.573 39.8718C54.1216 40.244 54.4502 40.8639 54.4502 41.5269V53.9361C54.4502 54.3006 54.1547 54.596 53.7903 54.596C53.4239 54.596 53.3305 55.1039 53.6729 55.2343L58.5997 57.1103C58.9859 57.2573 59.42 57.1434 59.5885 56.7661C59.7883 56.3187 60 55.6064 60 54.596V37.596L44.7031 27.1617C43.6772 26.4619 42.3261 26.4666 41.305 27.1735L30.1002 34.9308Z" fill="url(#paint0_linear_701_168)"/>
<path d="M26 39.8985C26 39.0239 27.0435 38.5707 27.6826 39.1677L31.0903 42.3508C31.4952 42.729 31.7251 43.2583 31.7251 43.8123V54.596H41.9381C42.1768 54.596 42.4135 54.6387 42.6371 54.7221L54.1905 59.0315C54.7125 59.2262 54.5729 60 54.0157 60H29C27.3431 60 26 58.6569 26 57V39.8985Z" fill="url(#paint1_linear_701_168)"/>
</g>
<path d="M111.5 37H280L270 27" stroke="url(#paint2_linear_701_168)" stroke-width="2" stroke-linecap="round" stroke-linejoin="round"/>
<path d="M279.5 49L111 49L121 59" stroke="url(#paint3_linear_701_168)" stroke-width="2" stroke-linecap="round" stroke-linejoin="round"/>
<rect x="174" y="23" width="41" height="41" rx="20.5" fill="#262626"/>
<path d="M188.5 43.55C188.5 44.3 188.642 45.0293 188.925 45.738C189.208 46.4467 189.65 47.1007 190.25 47.7L190.5 47.95V46.5C190.5 46.2167 190.596 45.9793 190.788 45.788C190.98 45.5967 191.217 45.5007 191.5 45.5C191.783 45.4993 192.02 45.5953 192.213 45.788C192.406 45.9807 192.501 46.218 192.5 46.5V50.5C192.5 50.7833 192.404 51.021 192.212 51.213C192.02 51.405 191.783 51.5007 191.5 51.5H187.5C187.217 51.5 186.979 51.404 186.788 51.212C186.597 51.02 186.501 50.7827 186.5 50.5C186.499 50.2173 186.595 49.98 186.788 49.788C186.981 49.596 187.218 49.5 187.5 49.5H189.25L188.85 49.15C187.983 48.3833 187.375 47.5083 187.025 46.525C186.675 45.5417 186.5 44.55 186.5 43.55C186.5 41.9833 186.9 40.5623 187.7 39.287C188.5 38.0117 189.575 37.0327 190.925 36.35C191.158 36.2167 191.404 36.2083 191.663 36.325C191.922 36.4417 192.092 36.6333 192.175 36.9C192.258 37.15 192.254 37.4 192.163 37.65C192.072 37.9 191.909 38.0917 191.675 38.225C190.708 38.7583 189.938 39.496 189.363 40.438C188.788 41.38 188.501 42.4173 188.5 43.55ZM200.5 43.45C200.5 42.7 200.358 41.971 200.075 41.263C199.792 40.555 199.35 39.9007 198.75 39.3L198.5 39.05V40.5C198.5 40.7833 198.404 41.021 198.212 41.213C198.02 41.405 197.783 41.5007 197.5 41.5C197.217 41.4993 196.98 41.4033 196.788 41.212C196.596 41.0207 196.5 40.7833 196.5 40.5V36.5C196.5 36.2167 196.596 35.9793 196.788 35.788C196.98 35.5967 197.217 35.5007 197.5 35.5H201.5C201.783 35.5 202.021 35.596 202.213 35.788C202.405 35.98 202.501 36.2173 202.5 36.5C202.499 36.7827 202.403 37.0203 202.212 37.213C202.021 37.4057 201.783 37.5013 201.5 37.5H199.75L200.15 37.85C200.967 38.6667 201.563 39.5543 201.938 40.513C202.313 41.4717 202.501 42.4507 202.5 43.45C202.5 45.0167 202.1 46.4377 201.3 47.713C200.5 48.9883 199.425 49.9673 198.075 50.65C197.842 50.7833 197.596 50.7917 197.338 50.675C197.08 50.5583 196.909 50.3667 196.825 50.1C196.742 49.85 196.746 49.6 196.838 49.35C196.93 49.1 197.092 48.9083 197.325 48.775C198.292 48.2417 199.063 47.5043 199.638 46.563C200.213 45.6217 200.501 44.584 200.5 43.45Z" fill="white"/>
<defs>
<filter id="filter0_di_701_168" x="308" y="0" width="86" height="86" filterUnits="userSpaceOnUse" color-interpolation-filters="sRGB">
<feFlood flood-opacity="0" result="BackgroundImageFix"/>
<feColorMatrix in="SourceAlpha" type="matrix" values="0 0 0 0 0 0 0 0 0 0 0 0 0 0 0 0 0 0 127 0" result="hardAlpha"/>
<feMorphology radius="6" operator="dilate" in="SourceAlpha" result="effect1_dropShadow_701_168"/>
<feOffset/>
<feComposite in2="hardAlpha" operator="out"/>
<feColorMatrix type="matrix" values="0 0 0 0 1 0 0 0 0 1 0 0 0 0 1 0 0 0 0.05 0"/>
<feBlend mode="normal" in2="BackgroundImageFix" result="effect1_dropShadow_701_168"/>
<feBlend mode="normal" in="SourceGraphic" in2="effect1_dropShadow_701_168" result="shape"/>
<feColorMatrix in="SourceAlpha" type="matrix" values="0 0 0 0 0 0 0 0 0 0 0 0 0 0 0 0 0 0 127 0" result="hardAlpha"/>
<feOffset dy="4"/>
<feGaussianBlur stdDeviation="15"/>
<feComposite in2="hardAlpha" operator="arithmetic" k2="-1" k3="1"/>
<feColorMatrix type="matrix" values="0 0 0 0 1 0 0 0 0 1 0 0 0 0 1 0 0 0 0.1 0"/>
<feBlend mode="normal" in2="shape" result="effect2_innerShadow_701_168"/>
</filter>
<filter id="filter1_di_701_168" x="0" y="0" width="86" height="86" filterUnits="userSpaceOnUse" color-interpolation-filters="sRGB">
<feFlood flood-opacity="0" result="BackgroundImageFix"/>
<feColorMatrix in="SourceAlpha" type="matrix" values="0 0 0 0 0 0 0 0 0 0 0 0 0 0 0 0 0 0 127 0" result="hardAlpha"/>
<feMorphology radius="6" operator="dilate" in="SourceAlpha" result="effect1_dropShadow_701_168"/>
<feOffset/>
<feComposite in2="hardAlpha" operator="out"/>
<feColorMatrix type="matrix" values="0 0 0 0 1 0 0 0 0 1 0 0 0 0 1 0 0 0 0.05 0"/>
<feBlend mode="normal" in2="BackgroundImageFix" result="effect1_dropShadow_701_168"/>
<feBlend mode="normal" in="SourceGraphic" in2="effect1_dropShadow_701_168" result="shape"/>
<feColorMatrix in="SourceAlpha" type="matrix" values="0 0 0 0 0 0 0 0 0 0 0 0 0 0 0 0 0 0 127 0" result="hardAlpha"/>
<feOffset dy="4"/>
<feGaussianBlur stdDeviation="15"/>
<feComposite in2="hardAlpha" operator="arithmetic" k2="-1" k3="1"/>
<feColorMatrix type="matrix" values="0 0 0 0 1 0 0 0 0 1 0 0 0 0 1 0 0 0 0.1 0"/>
<feBlend mode="normal" in2="shape" result="effect2_innerShadow_701_168"/>
</filter>
<linearGradient id="paint0_linear_701_168" x1="43" y1="26" x2="43" y2="60" gradientUnits="userSpaceOnUse">
<stop stop-color="#EA580B"/>
<stop offset="1" stop-color="#FB923C"/>
</linearGradient>
<linearGradient id="paint1_linear_701_168" x1="43" y1="26" x2="43" y2="60" gradientUnits="userSpaceOnUse">
<stop stop-color="#EA580B"/>
<stop offset="1" stop-color="#FB923C"/>
</linearGradient>
<linearGradient id="paint2_linear_701_168" x1="280" y1="25.9595" x2="277.604" y2="52.2161" gradientUnits="userSpaceOnUse">
<stop stop-color="#FF5F0D"/>
<stop offset="0.457635" stop-color="#FED9C6"/>
<stop offset="1" stop-color="#FF8546"/>
</linearGradient>
<linearGradient id="paint3_linear_701_168" x1="111" y1="60.0404" x2="113.396" y2="33.7839" gradientUnits="userSpaceOnUse">
<stop stop-color="#FF5F0D"/>
<stop offset="0.457635" stop-color="#FED9C6"/>
<stop offset="1" stop-color="#FF8546"/>
</linearGradient>
</defs>
</svg>
